X:1
T:Lay Your Hands On Me
T:Lay Your Hands On Me
T:Bon Jovi
C:Bon Jovi
Z:All Rights Reserved
L:1/16
M:4/4
K:A
V:1 treble 
%%MIDI program 40
V:1
 z2 c3B3 A3F3A2 | z2 c3B3 A3F3A2 | z2 =c3c3 d3d3^c2- |1 c8 z8 :|2 c2 a6 z8 || z16 | z16 | z16 | %8
w: Lay your hands on me,|lay your hands on me,|lay your hands on me.||||||
w: ||||||||
 z8 z4 D2D2 | =F2F2 z =G3 F2E2 z2 D2 | E2 D6 z4 D2D2 | =F3=G3A2 F4 D2DB,- | B,2 D6 z4 z2 D2 | %13
w: If you're|read- y, I'm will- ing and|a- ble. Help me|lay my cards out on the tab-|* le. You're|
w: |||||
 =F4- FF=G2 ^F4 D2DB,- | B,2 D6 z2 D2D2D2 | =F2=G2G2A2 F4 D2>E2- | E2F2>E2D2 z8 | %17
w: mine- * and I'm yours for the tak-|* ing. Right now the|rules we made are meant for break-|* ing. * *|
w: ||||
S =G2=F2G2G2 A2G2F2GF- | F4 z4 z4 z2 D2 | =F2FF2F=G2 z2 A3D3 | D4 z4 z4 D2D2 | %21
w: What you get ain't al- ways what you see,|* but|sat- is- fac- tion is guar- an-|teed. They say|
w: Ev- 'ry thing you want is what I need,|* your|sat- is- fac- tion is guar- an-|teed. But the|
 =G2=F2G2G2 A2G2F2GF- | F4 z2 (D=C) D2<=F2 =G4 | z2 =F3F3 F3F3F2 | z2 =G3G3 G3G3A2- | %25
w: what you give is al- ways what you need.-|* So,- * * * *|if you want me to|lay my hands on you:-|
w: ride don't nev- er ev- er come for free,|* no.- * * * *|||
 A2F3E3 D3B,3D2 | z2 F3E3 D3B,3D2 | z2 =C3D3 =G3G3F2- | F16 | z2 F3E3 D3B,3D2 | z2 F3E3 D3B,3D2 | %31
w: * Lay your hands on me,|lay your hands on me,|lay your hands on me.||Lay your hands on me,|lay your hands on me,|
w: ||||||
 z2 =C3D3 =G3G3F2-!dacoda! | F16 | z8 z2 D2<D2DF- | F2F2 z2 =GG FD z2 z2 DD | E2 D6 z2 D2D2DF- | %36
w: lay your hands on me.||Now I'm a fight-|* er, I'm a po- et, I'm a|preach- er. I've been to school|
w: |||||
 F4 z2 F2 FFF2E2DE- | E2F2>E2D2 z4 D2D2 | =F2=G2G2A2 FE2E2=CE2 | D4 z4 z4 D2D2 | %40
w: * and ba- by I've been the teach-|* er.- * * If you|show me how to get up off the ground.-|* I can|
w: ||||
 =F2F=G2AF2 z3 DD2D2 | A=G2=F2G2^F- F4 z4!D.S.! |O F8 z8 | =G2=F2G2G2 A2G2F2GF- | F8 z8 | %45
w: show you how to fly and nev- er|ev- er come back down. *||Don't you know I on- ly aim to please.||
w: |||||
 z2 =F3F3 F3F3F2 | =G4 G4 G3G3A2- | A16 | z16 | z16 | z16 | z2 F3E3 D3B,3D2 | z2 F3E3 D3B,3D2 | %53
w: If you want me to|lay my hands on you:-|||||Lay your hands on me,|lay your hands on me,|
w: ||||||||
 z2 =C3D3 =G3G3F2- | F16 |: z2 (F3E3) D3B,3D2 | z2 (F3E3) D3B,3D2 | z2 =C3D3 =G3G3F2- | %58
w: lay your hands on me.||Lay your hands on me,|lay your hands on me,|lay your hands on me.|
w: ||Whoa,- * * * *|whoa,- * * * *||
"^Repeat 4 Times" F16 :| z2 F3E3 D3B,3D2 | z2 F3E3 D3B,3D2 | z2 =F3F3 =G3G3^F2- | F4 z4 z8 |] %63
w: |Lay your hands on me,|lay your hands on me,|lay your hands on me.||
w: |||||

